assets/gcpkeymanagementservice/original.svg

<svg height="24" width="24" xmlns="http://www.w3.org/2000/svg"><g fill-rule="evenodd"><path d="m11.32 17.06h-1.32v1.4h1.37v.63h1.43v-6.91a3.47 3.47 0 0 0 2.67-3.34 3.42 3.42 0 1 0 -4.1 3.36v2.12h-2.11v1.4h2.06zm.68-15.06 8.21 3.42v5.63c0 5.06-3.5 9.8-8.21 11-4.71-1.15-8.21-5.89-8.21-10.95v-5.68zm0 5a1.88 1.88 0 0 1 .72 3.62 1.88 1.88 0 1 1 -.72-3.62" fill="#669df6"/><path d="m12 19.09h.75v-6.91a3.47 3.47 0 0 0 2.67-3.34 3.42 3.42 0 0 0 -3.42-3.42v-3.42l8.21 3.42v5.63c0 5.06-3.5 9.8-8.21 11zm0-12.09a1.88 1.88 0 0 1 .72 3.62 1.1 1.1 0 0 1 -.72.15z" fill="#4285f4"/></g></svg>

<svg xmlns="http://www.w3.org/2000/svg" width="24" height="24"><g fill-rule="evenodd"><path fill="#669df6" d="M11.32 17.06H10v1.4h1.37v.63h1.43v-6.91a3.47 3.47 0 0 0 2.67-3.34 3.42 3.42 0 1 0-4.1 3.36v2.12H9.26v1.4h2.06zM12 2l8.21 3.42v5.63c0 5.06-3.5 9.8-8.21 11-4.71-1.15-8.21-5.89-8.21-10.95V5.42zm0 5a1.88 1.88 0 0 1 .72 3.62A1.88 1.88 0 1 1 12 7"/><path fill="#4285f4" d="M12 19.09h.75v-6.91a3.47 3.47 0 0 0 2.67-3.34A3.42 3.42 0 0 0 12 5.42V2l8.21 3.42v5.63c0 5.06-3.5 9.8-8.21 11zM12 7a1.88 1.88 0 0 1 .72 3.62 1.1 1.1 0 0 1-.72.15z"/></g></svg>
